X:1
T:Perhaps
T:Perhaps
T:Charlie Parker
C:Charlie Parker
Z:All Rights Reserved
L:1/8
M:4/4
K:C
V:1 treble 
%%MIDI program 0
V:1
|:"Cmaj7" z GEF GABc- |"Dm7" c G2 A"G7" BAEF |"Cmaj7" GAGE FGED |"Gm7" z4"C7" z c2 A | %4
"Fmaj7" c2 z E FGFE |"F7" _EGAB- B3 A |"Cmaj7" G2 z _A- A c2 d |"Em7" BGE_B-"A7b9" B3 ^G | %8
"Dm7" A2 z c edcB |"G7b9" _AFGF z2 z G |"Cmaj7" E2 z G F2 z A | G2 z2 z4 :| %12

